X: 25006
T: Maid On The Green, The
R: jig
M: 6/8
K: Gmajor
~g3 e2d|Bee dBA|BGG DGG|FAA ABd|
~g3 e2d|Bde dBA|BGG dBA|AGF G3:|
~g3 afd|~g3 a2f|~g3 eag|fd^c d2a|
bag agf|~g3 e2d|Bde dBA|AGF GB/c/d:|

